X: 4618
T: Bourrée Diogenes
R: polka
M: 2/4
K: Emixolydian
|:e E2 G|A2 B2|d>c BA|BB^AB|
e E2 G|A2 B2|d>c Bc|A4:|
|:g f2 (g|g) e2 g|a>g fe|d>c BA|
g f2 (g|g) e2 g|a>g fe|d4:|

